svgs/regular/list-check.svg

<svg xmlns="http://www.w3.org/2000/svg" viewBox="0 0 512 512"><!--! Font Awesome Pro 6.0.0-alpha3 by @fontawesome - https://fontawesome.com License - https://fontawesome.com/license (Commercial License) --><path d="M216 120h272C501.3 120 512 109.3 512 96c0-13.26-10.75-24-24-24h-272C202.7 72 192 82.74 192 96C192 109.3 202.7 120 216 120zM48.06 384C30.4 384 16 398.3 16 416c0 17.67 14.4 32 32.06 32S80 433.7 80 416C80 398.3 65.73 384 48.06 384zM488 232h-272C202.7 232 192 242.7 192 256c0 13.25 10.75 24 24 24h272C501.3 280 512 269.3 512 256C512 242.7 501.3 232 488 232zM488 392h-304C170.7 392 160 402.7 160 416c0 13.25 10.75 24 24 24h304c13.25 0 24-10.75 24-24C512 402.7 501.3 392 488 392zM118.2 39.94L63.09 101.1l-22.12-22.11c-9.375-9.375-24.56-9.375-33.94 0s-9.375 24.56 0 33.94l40 40C51.53 157.5 57.66 160 63.1 160c.2187 0 .4065 0 .6253-.0156c6.594-.1719 12.81-3.031 17.22-7.922l72-80c8.875-9.859 8.062-25.03-1.781-33.91C142.2 29.31 127.1 30.09 118.2 39.94zM118.2 199.9L63.09 261.1l-22.12-22.11c-9.375-9.375-24.56-9.375-33.94 0s-9.375 24.56 0 33.94l40 40C51.53 317.5 57.66 320 63.1 320c.2187 0 .4065 0 .6253-.0156c6.594-.1719 12.81-3.031 17.22-7.922l72-80c8.875-9.859 8.062-25.03-1.781-33.91C142.2 189.3 127.1 190.1 118.2 199.9z"/></svg>

<svg xmlns="http://www.w3.org/2000/svg" viewBox="0 0 512 512"><!--! Font Awesome Pro 6.4.2 by @fontawesome - https://fontawesome.com License - https://fontawesome.com/license (Commercial License) Copyright 2023 Fonticons, Inc. --><path d="M153.8 72.1c8.9-9.9 8.1-25-1.8-33.9s-25-8.1-33.9 1.8L63.1 101.1 41 79C31.6 69.7 16.4 69.7 7 79s-9.4 24.6 0 33.9l40 40c4.7 4.7 11 7.2 17.6 7s12.8-3 17.2-7.9l72-80zm0 160c8.9-9.9 8.1-25-1.8-33.9s-25-8.1-33.9 1.8L63.1 261.1 41 239c-9.4-9.4-24.6-9.4-33.9 0s-9.4 24.6 0 33.9l40 40c4.7 4.7 11 7.2 17.6 7s12.8-3 17.2-7.9l72-80zM216 120H488c13.3 0 24-10.7 24-24s-10.7-24-24-24H216c-13.3 0-24 10.7-24 24s10.7 24 24 24zM192 256c0 13.3 10.7 24 24 24H488c13.3 0 24-10.7 24-24s-10.7-24-24-24H216c-13.3 0-24 10.7-24 24zM160 416c0 13.3 10.7 24 24 24H488c13.3 0 24-10.7 24-24s-10.7-24-24-24H184c-13.3 0-24 10.7-24 24zm-64 0a32 32 0 1 0 -64 0 32 32 0 1 0 64 0z"/></svg>
